svgs/solid/circle-e.svg

<svg xmlns="http://www.w3.org/2000/svg" viewBox="0 0 512 512"><!-- Font Awesome Pro 6.0.0-alpha2 by @fontawesome - https://fontawesome.com License - https://fontawesome.com/license (Commercial License) --><path d="M256 16C123.451 16 16 123.451 16 256S123.451 496 256 496S496 388.549 496 256S388.549 16 256 16ZM296 232C309.25 232 320 242.75 320 256S309.25 280 296 280H208V336H328C341.25 336 352 346.75 352 360S341.25 384 328 384H184C170.75 384 160 373.25 160 360V152C160 138.75 170.75 128 184 128H328C341.25 128 352 138.75 352 152S341.25 176 328 176H208V232H296Z"/></svg>

<svg xmlns="http://www.w3.org/2000/svg" viewBox="0 0 512 512"><!--! Font Awesome Pro 6.3.0 by @fontawesome - https://fontawesome.com License - https://fontawesome.com/license (Commercial License) Copyright 2023 Fonticons, Inc. --><path d="M256 512A256 256 0 1 0 256 0a256 256 0 1 0 0 512zM184 128H328c13.3 0 24 10.7 24 24s-10.7 24-24 24H208v56h88c13.3 0 24 10.7 24 24s-10.7 24-24 24H208v56H328c13.3 0 24 10.7 24 24s-10.7 24-24 24H184c-13.3 0-24-10.7-24-24V256 152c0-13.3 10.7-24 24-24z"/></svg>
